X: 13895
T: Fox On The Town, The
R: reel
M: 4/4
K: Gmajor
|:ef|gedg edBA|~G3B dG (3Bcd|gedg ~e3f|g2fg efga|
beed edBA|~G3B dG (3Bcd|efgb af~f2|gbaf g2:|
|:ga|bege Bege|dB~B2 dega|bege Bege|degb ~a3b|
g2fg edBA|~G3B dG (3Bcd|efgb af~f2|gbaf g2:|

